X:1
T:Redemption
T:Attributed to Joseph Stephenson E minor            Arranged by Asahel Benham, 1798
T:Transcribed from Benham's Social Harmony, 1798.
T:Anonymous author
%%score [ 1 2 3 4 ]
L:1/8
Q:1/4=80
M:2/4
K:G
V:1 treble nm="Tr." snm="Tr."
V:2 treble nm="C." snm="C."
V:3 treble-8 nm="T." snm="T."
V:4 bass nm="B." snm="B."
V:1
 z | z4 | z4 | z4 | z4 | z4 | z4 | z4 | z4 | z4 | %10
 z2 z"_Earth spread the sound, spread the sound with decent mirth;  A God, a" B | d3/2 e/ d2- | %12
 d2 B3/2 c/ | d3 d | e2 e2 | d2 z d | g3 B | %17
"_God  is     born                       on  earth.                                                                                                      the  hills   re  –  ply.    Eve–ning repeats to  won – dering morn,  A" e3 e | %18
 (f/>e/f/>g/ a2) | d2 B2- | B2 z2 | z4 | z4 | z4 | z4 | z4 | z2 z B | e2 e>d | e2 z B |: d2 g2 | %30
 d2 g2 | d2 ef | g2 z B | A3 B | d3 B | G2 d2 |1 B3 B :|2 B4 ||[M:3/2][Q:1/4=120] z8 B4 | G8 A4 | %40
 B8 (B2 d2) | e8 (f2 g2) | d8 B4 | c8 d4 | d8 d4 | (e4 d4) (A3 G) | B8 B4 |[M:4/4] B2 B2 A4 | %48
 c4 c2 c2 | c8 | B4 G2 G2 | G4 z4 | (B c3) z2 (e2 | d6) cA | G8 |[M:2/4][Q:1/4=80] z2 B2 | B2 A2 | %57
 B3 A | Bg e2 | d4 | z2 G2 | G2 G2 | G3 F | Gc A2 | G4 | z2 B2 | e3 g | f3 d/B/ | G2 (3ABc | B4 | %70
 B2 B B | B/>c/B/c/d d | d/>e/f/g/a d | B4- | B4 | z2 d2 | B2 d2 | d3 g | e>dc e | d2 z B | d2 f2 | %81
 a>gf d | f2 e2 | d2 z d | BA/G/ (d>c | B/>c/B/c/B/>c/B/c/ | d/>e/d/e/d/>e/d/e/ | d2) z B | c2 B2 | %89
 B4 | d2 B B | G3 G | (B>e d2) | d4 | [GB]4- | [GB]4 |] %96
V:2
 z | z4 | z4 | z4 | z4 | z4 | z4 | z4 | z4 | z4 | %10
 z2 z"_Earth spread the sound, spread the sound with decent mirth;  A God, a" D | D3/2 G/ G2- | %12
 G2 G A | B3 G | A2 A2 | F2 z G | G3 E | %17
"_God  is     born                       on  earth.                                                                                                      the  hills   re  –  ply.     Eve–ning repeats to  won – dering morn,  A" A3 F | %18
 B>GF>G | A2 D2- | D2 z2 | z4 | z4 | z4 | z4 | z4 | z2 z G | B2 cA | B2 z G |: B2 B2 | B2 B2 | %31
 Bd cA | B2 z G | %33
"_God, a God on earth is born. Eve–      born.        Our frailties long  he     deigned  to  share,  The Heir  of  heav'n, of  pain   the      heir.   By  miracles  his power he proved;" A3 G | %34
 B3 D | E2 F2 |1 G3 G :|2 G4 ||[M:3/2] z8 D4 | E8 D4 | G8 D4 | (E4 B,4) (D2 E2) | F8 (G2 E2) | %43
 A8 F4 | B8 F4 | (G4 F4) A4 | G8 G4 |[M:4/4] G2 G2 G4 | A4 A2 A2 | A8 | %50
"_Preached, fasted, wept, sighed,    groaned,    and     died.         He lived that men might  live  in  peace,     he died that death and sin might cease.    He   rose   to   prove  to" B4 E2 E2 | %51
 E4 z4 | (D E3) z2 (E2 | F6) E>D | [CE]8 |[M:2/4] z2 D2 | G2 F2 | G2 F2 | GB cA | G4 | z2 B,2 | %61
 E2 E2 | E3 D/E/ | FG D2 | B,4 | z2 D2 | E3 E | A3 D | %68
"_hell's  fierce power  Blest im–mor–ta           –            li    –    ty                is           ours.               O may we strive like  him      to           live,  Our friends esteem,               our" E2 F2 | %69
 [DF]4 | G2 G G | G3 G | F2 A2 | B4- | B4 | z2 G2 | G2 G2 | B3 B | c2 A2 | G2 z G | A2 A2 | A3 A | %82
"_foes   for   –  give;  Our  country    love,                                                                                                  our God  a–dore,  Till  sin and death shall  reign              no    more." D2 ^C2 | %83
 D2 z D | G F G2- | G4- | G4- | G2 z B | A2 F2 | G4 | G2 D D | E3 G | (D>G F2) | A4 | G4- | G4 |] %96
V:3
"_Hark, hark, glad tidings charm      our  ears;    An –ge –lic  mu    –    sic  fills  the    spheres;       Earth  spread     the    sound               with de–cent mirth;   A  God,  a" G | %1
 G2 B2 | d3 e/d/ | B>GA A | G4 | z2 d2 | g2 g2 | f>ga d | e2 (3ede | d4 | z2 z D | G>AB c | (d4 | %13
 g3) B | c2 c2 | B2 z G | d3 d | %17
"_God  is     born                       on  earth.     A  God  is    born,   the   val–leys cry;  A  God  is    born,                                        Eve–ning repeats to  won – dering morn,  A" g3 g | %18
 de/d/BG | A2 G2- | G2 z B | d2 d>B | d2 z G | G2 G2 | G2 z B | d2 d>B | d2 z2 | z4 | z2 z d |: %29
 g2 d2 | g2 d2 | gf ed | B2 z G | d3 d | g3 d | B2 D2 |1 G3 d :|2 G4 ||[M:3/2] z8 G4 | B8 (c2 A2) | %40
 d8 (B2 A2) | B8 (A2 G2) | A8 B4 | e8 (f2 d2) | g8 B4 | (c4 A4) (d3 e) | d8 d4 |[M:4/4] d2 d2 d4 | %48
 e4 e2 e>d | e8 | g4 B2 B2 | c4 z4 | (d g3) z2 (c2 | B6) A2 | G8 |[M:2/4] z2 B2 | d2 d2 | d3 d | %58
 d2 c2 | B4 | z2 B2 | B2 B2 | c3 B/A/ | BG F2 | G4 | z2 d2 | g3 e | d3 B/G/ | E2 A2 | B4 | d2 d d | %71
 (d2 B) G | B/>c/B/d/c A | G4- | G4 | z2 B2 | d2 g2 | g3 G | c>de A | d2 z d | d2 d2 | %81
 d/>e/d/e/d B | %82
"_______________________________________________________________________________________\nAttributed to Joseph Stephenson (1723-1810) by Karen Willard in \nAn American Christmas Harp\n, 2009.\nThis arrangement by Asahel Benham, 1798, was shortened (first 38 measures) by William Walker \n   in Southern Harmony, 1835. Walker's short version is often reproduced in American tunebooks." A2 A>F | %83
 A2 z A | G A (B>c | d>ed>c | B>ed>B | G2) z g | e2 ^d2 | e4 | B2 G G | G3 G | G>cA>G | F4 | G4- | %95
 G4 |] %96
V:4
 G, | G,2 G,2 | G,3 G, | G,2 D,2 | G,4 | z2 G,2 | G,2 G,2 | D2 D,2 | C2 C,2 | D,4 | %10
 z2 z"_Earth spread      the   sound                  with decent mirth;  A   God,  a" D, | %11
 G,3 G, | G,4- | G,3 B, | A,2 A,2 | B,2 z G, | G,3 B, | %17
"_God  is     born                       on  earth.                                      the   val–leys cry;                                                                       Eve–ning repeats to  won – dering morn,  A" C3 C | %18
 (B,C D2) | D,2 G,2- | G,2 z2 | z4 | z2 z G, | C,2 C,2 | C,2 z2 | z4 | z4 | z4 | z2 z G, |: %29
 G,2 G,2 | G,2 G,2 | G,B, CD | G,2 z G, | D,3 G, | G,3 F, | E,2 D,2 |1 G,3 G, :|2 G,4 || %38
[M:3/2] z8 G,4 | E,8 F,4 | G,8 (G,2 F,2) | (E,6 G,2) (F,2 E,2) | D,8 G,4 | A,8 B,4 | D8 D4 | %45
 (C,4 D,4) D,4 | G,8 G,4 |[M:4/4] G,2 G,2 D,4 | A,4 A,2 A,2 | A,8 | G,4 E,2 E,2 | C,4 z4 | %52
 C,4 z2 (B,,C, | D,6) (A,,>B,, | C,8) |[M:2/4] z2 G,2 | G,2 D,2 | G,2 D,2 | G,2 C2 | G,4 | z2 E,2 | %61
 E,2 E,2 | C,3 D, | B,,C, D,2 | G,,4 | z2 B,2 | C3 C | D3 D, | C,2 D,2 | B,,4 | G,2 G, G, | %71
 (G,2 G,/>A,/) B,/C/ | D2 D,2 | G,4- | G,4 | z2 G,2 | G,2 G,2 | G,3 E, | A,>B,C C | G,2 z G, | %80
 B,2 B,2 | B,3 B, | D,2 A,,2 | D,2 z D, | E, D, G,2- | G,4- | G,4- | G,2 z G, | A,2 B,2 | E,4 | %90
 G,2 B,, B,, | C,3 C, | (B,,>C, D,2) | B,,4 | G,,4- | G,,4 |] %96

